public/logo.svg

<svg width="117" height="24" viewBox="0 0 117 24" fill="none" xmlns="http://www.w3.org/2000/svg">
<g clip-path="url(#clip0_1_2)">
<path fill-rule="evenodd" clip-rule="evenodd" d="M57.719 19.268V7.43801H60.859V19.268H57.719ZM57.276 4.05601C57.276 2.92801 58.183 2.08801 59.289 2.08801C60.394 2.08801 61.301 2.92801 61.301 4.05601C61.301 5.16101 60.394 6.00201 59.289 6.00201C58.183 6.00201 57.276 5.16201 57.276 4.05601ZM98.182 13.099C98.182 17.101 100.57 19.445 104.483 19.445C108.375 19.445 110.785 17.101 110.785 13.099V3.79001H107.446V12.989C107.446 15.178 106.274 16.327 104.483 16.327C102.692 16.327 101.521 15.177 101.521 12.989V3.79001H98.181V13.1L98.182 13.099ZM112.712 3.79001V19.268H116.051V3.79001H112.712ZM81.914 19.268V7.43801H84.987V9.18601C85.806 7.96901 87.265 7.26201 88.879 7.26201C91.356 7.26201 93.102 8.92001 93.102 11.861V19.268H89.962V12.812C89.962 11.021 89.1 10.136 87.685 10.136C86.181 10.136 85.054 11.176 85.054 13.099V19.269L81.914 19.268ZM63.003 19.821C63.246 22.32 65.5 24 68.84 24C72.621 24 74.92 21.855 74.92 18.65V7.43801H71.847V9.09601C71.117 7.94601 69.791 7.26101 68.177 7.26101C65.192 7.26101 62.804 9.67101 62.804 13.076C62.804 16.503 65.192 18.914 68.177 18.914C69.769 18.914 71.095 18.228 71.825 17.123V18.648C71.825 20.351 70.719 21.412 68.951 21.412C67.58 21.412 66.563 20.771 66.275 19.82L63.003 19.821ZM68.928 16.151C67.226 16.151 65.988 14.891 65.988 13.077C65.988 11.264 67.226 10.026 68.928 10.026C70.631 10.026 71.848 11.264 71.848 13.077C71.848 14.89 70.631 16.151 68.928 16.151ZM76.829 7.43901V19.269H79.969V7.43801L76.829 7.43901ZM78.399 2.08801C77.293 2.08801 76.387 2.92801 76.387 4.05601C76.387 5.16101 77.293 6.00201 78.399 6.00201C79.504 6.00201 80.411 5.16201 80.411 4.05601C80.411 2.92801 79.504 2.08801 78.399 2.08801ZM48.274 19.268V7.43801H51.347V9.49501C51.988 8.16801 53.315 7.43901 54.841 7.43901H55.813V10.313H54.753C52.541 10.313 51.413 11.441 51.413 13.763V19.268H48.274ZM30.743 11.53C30.743 16.218 34.17 19.446 38.57 19.446C42.992 19.446 46.397 16.218 46.397 11.53C46.397 6.84301 42.992 3.61501 38.57 3.61501C34.17 3.61501 30.743 6.84301 30.743 11.53ZM38.57 16.373C36.027 16.373 34.17 14.449 34.17 11.53C34.17 8.61201 36.027 6.68801 38.57 6.68801C41.113 6.68801 42.992 8.61201 42.992 11.53C42.992 14.449 41.112 16.373 38.57 16.373Z" fill="#27272A"/>
<g filter="url(#filter0_i_1_2)">
<path fill-rule="evenodd" clip-rule="evenodd" d="M11.371 22.743C17.651 22.743 22.743 17.652 22.743 11.371C22.743 5.091 17.652 0 11.37 0C5.091 0 0 5.091 0 11.371C0 17.651 5.091 22.743 11.371 22.743ZM11.371 16.918C12.8422 16.918 14.2531 16.3336 15.2933 15.2933C16.3336 14.2531 16.918 12.8422 16.918 11.371C16.918 9.89984 16.3336 8.48894 15.2933 7.44868C14.2531 6.40841 12.8422 5.824 11.371 5.824C9.89984 5.824 8.48894 6.40841 7.44868 7.44868C6.40841 8.48894 5.824 9.89984 5.824 11.371C5.824 12.8422 6.40841 14.2531 7.44868 15.2933C8.48894 16.3336 9.89984 16.918 11.371 16.918Z" fill="url(#paint0_linear_1_2)"/>
</g>
</g>
<defs>
<filter id="filter0_i_1_2" x="0" y="0" width="22.743" height="23.743" filterUnits="userSpaceOnUse" color-interpolation-filters="sRGB">
<feFlood flood-opacity="0" result="BackgroundImageFix"/>
<feBlend mode="normal" in="SourceGraphic" in2="BackgroundImageFix" result="shape"/>
<feColorMatrix in="SourceAlpha" type="matrix" values="0 0 0 0 0 0 0 0 0 0 0 0 0 0 0 0 0 0 127 0" result="hardAlpha"/>
<feOffset dy="1"/>
<feGaussianBlur stdDeviation="0.5"/>
<feComposite in2="hardAlpha" operator="arithmetic" k2="-1" k3="1"/>
<feColorMatrix type="matrix" values="0 0 0 0 0 0 0 0 0 0 0 0 0 0 0 0 0 0 0.01 0"/>
<feBlend mode="normal" in2="shape" result="effect1_innerShadow_1_2"/>
</filter>
<linearGradient id="paint0_linear_1_2" x1="11.371" y1="-9.239" x2="11.371" y2="22.743" gradientUnits="userSpaceOnUse">
<stop stop-color="#F4F4F5"/>
<stop offset="0.625" stop-color="#45C18A"/>
<stop offset="1" stop-color="#41B883" stop-opacity="0.8"/>
</linearGradient>
<clipPath id="clip0_1_2">
<rect width="117" height="24" fill="white"/>
</clipPath>
</defs>
</svg>

<svg xmlns="http://www.w3.org/2000/svg" width="117" height="24" fill="none"><path fill="#27272A" fill-rule="evenodd" d="M57.719 19.268V7.438h3.14v11.83h-3.14Zm-.443-15.212c0-1.128.907-1.968 2.013-1.968 1.105 0 2.012.84 2.012 1.968 0 1.105-.907 1.946-2.012 1.946-1.106 0-2.013-.84-2.013-1.946Zm40.906 9.043c0 4.002 2.388 6.346 6.301 6.346 3.892 0 6.302-2.344 6.302-6.346V3.79h-3.339v9.199c0 2.189-1.172 3.338-2.963 3.338-1.791 0-2.962-1.15-2.962-3.338V3.79h-3.34v9.31Zm14.53-9.309v15.478h3.339V3.79h-3.339ZM81.914 19.268V7.438h3.073v1.748c.819-1.217 2.278-1.924 3.892-1.924 2.477 0 4.223 1.658 4.223 4.599v7.407h-3.14v-6.456c0-1.791-.862-2.676-2.277-2.676-1.504 0-2.631 1.04-2.631 2.963v6.17h-3.14Zm-18.911.553C63.246 22.32 65.5 24 68.84 24c3.781 0 6.08-2.145 6.08-5.35V7.438h-3.073v1.658c-.73-1.15-2.056-1.835-3.67-1.835-2.985 0-5.373 2.41-5.373 5.815 0 3.427 2.388 5.838 5.373 5.838 1.592 0 2.918-.686 3.648-1.791v1.525c0 1.703-1.106 2.764-2.874 2.764-1.371 0-2.388-.641-2.676-1.592h-3.272Zm5.925-3.67c-1.702 0-2.94-1.26-2.94-3.074 0-1.813 1.238-3.051 2.94-3.051 1.703 0 2.92 1.238 2.92 3.051 0 1.813-1.217 3.074-2.92 3.074Zm7.901-8.712v11.83h3.14V7.438h-3.14Zm1.57-5.351c-1.106 0-2.012.84-2.012 1.968 0 1.105.906 1.946 2.012 1.946 1.105 0 2.012-.84 2.012-1.946 0-1.128-.907-1.968-2.012-1.968Zm-30.125 17.18V7.438h3.073v2.057c.641-1.327 1.968-2.056 3.494-2.056h.972v2.874h-1.06c-2.212 0-3.34 1.128-3.34 3.45v5.505h-3.14ZM30.743 11.53c0 4.688 3.427 7.916 7.827 7.916 4.422 0 7.827-3.228 7.827-7.916 0-4.687-3.405-7.915-7.827-7.915-4.4 0-7.827 3.228-7.827 7.915Zm7.827 4.843c-2.543 0-4.4-1.924-4.4-4.843 0-2.918 1.857-4.842 4.4-4.842s4.422 1.924 4.422 4.842c0 2.919-1.88 4.843-4.422 4.843Z" clip-rule="evenodd"/><g filter="url(#a)"><path fill="url(#b)" fill-rule="evenodd" d="M11.371 22.743c6.28 0 11.372-5.091 11.372-11.372C22.743 5.091 17.652 0 11.37 0 5.091 0 0 5.091 0 11.371s5.091 11.372 11.371 11.372Zm0-5.825a5.547 5.547 0 1 0 0-11.094 5.547 5.547 0 0 0 0 11.094Z" clip-rule="evenodd"/></g><defs><linearGradient id="b" x1="11.371" x2="11.371" y1="-5.686" y2="22.743" gradientUnits="userSpaceOnUse"><stop stop-color="#E4E4E7"/><stop offset=".36" stop-color="#A1A1AA"/><stop offset="1" stop-color="#52525B"/></linearGradient><filter id="a" width="22.743" height="23.743" x="0" y="0" color-interpolation-filters="sRGB" filterUnits="userSpaceOnUse"><feFlood flood-opacity="0" result="BackgroundImageFix"/><feBlend in="SourceGraphic" in2="BackgroundImageFix" result="shape"/><feColorMatrix in="SourceAlpha" result="hardAlpha" values="0 0 0 0 0 0 0 0 0 0 0 0 0 0 0 0 0 0 127 0"/><feOffset dy="1"/><feGaussianBlur stdDeviation=".5"/><feComposite in2="hardAlpha" k2="-1" k3="1" operator="arithmetic"/><feColorMatrix values="0 0 0 0 0 0 0 0 0 0 0 0 0 0 0 0 0 0 0.01 0"/><feBlend in2="shape" result="effect1_innerShadow_757_157"/></filter></defs></svg>
